!!!ONB: MCCC : IJH0457_04 : Extracted Monophonic Melody
!!!COM: Haydn, Joseph
!!!OPR: String Quartet in F minor
!!!OMV: 4
!!!SCT: Hob.III:61 ; Op.55 No.2
!!!ODT: 1788///
**kern
*thru
*k[b-]
*F:
*clefF
*M6/8
8g#
=1
8a
8a
8b
8cc
8cc
8cc#
=2
8dd
16dd
16cc#
16dd
16b-
8g
8r
8f#
=3
8g
8g
8a
8b-
8b-
8b
=4
8cc
16cc
16b
16cc
16a
8f
8r
8ff
=5
8ee
8ee
8ccc
8ff
8ff
8ddd
=6
8bb
16bb
16aa
16bb
16gg
8ccc
8r
8g#
=7
8a
8r
8b
8cc
8r
8cc#
=8
8dd
16dd
16cc#
16dd
16b-
8g
8r
8f#
=9
8g
8r
8a
8b-
8r
8b
=10
8cc
16cc
16b
16cc
16a
8f
8r
8ff
=11
8ee
8ee
8ccc
8ff
8ff
8ddd
=12
8bb
16bb
16aa
16bb
16gg
8ccc
8r
8cc
=13
8dd
8dd
8ee
8ff
8ff
8aa
=14
8gg
16gg
16aa
16gg
16aa
8gg
8r
8dd
=15
8ee
8ee
8ff#
8gg
8gg
8bb-
=16
8aa
16aa
16bb-
16aa
16bb-
8aa
8r
8ddd
=17
8eee-
8eee-
8ccc#
8ddd
8ddd
8ccc
=18
8bb-
8ccc
8aa
8gg
4r
=19
4r
8cc#
8dd
8dd
8r
=20
4r
8b
8cc
8cc
8gg#
=21
8aa
8a
8bb
8ccc
8cc
8ccc#
=22
8ddd
16ddd
16bb-
16ddd
16bb-
8gg
8r
8ff#
=23
8gg
8g
8aa
8bb-
8b-
8bb
=24
8ccc
16ccc
16aa
16ccc
16aa
8ff
8r
8ff
=25
8ee
8ee
8ccc
8ff
8ff
8ddd
=26
16ccc
16bb-
16aa
16gg
16ff
16ee
8ff
8r
8a
=27
8b-
8b-
8a
8g
8g
8r
=28
2r
8r
8ccc
=29
8bb
8bb
4bb-
8aa
8gg
=30
8ff
16ff
16ee
16gg
16ee
8ff
8r
8a
=31
16b-
16cc
16dd
16cc
16b-
16a
8g
8g
8r
=32
2r
8r
8ccc
=33
8bb
8bb
4bb-
8aa
8gg
=34
8ff
16ff
16ee
16gg
16ee
16ff
16cc
16a
16aa
16ff
16cc
=35
16gg
16ee
16cc
16bb-
16gg
16ee
16ff
16cc
16a
16aa
16ff
16cc
=36
16gg
16ee
16cc
16bb-
16gg
16ee
16aa
16ff
16cc
16ccc
16aa
16ff
=37
16gg
16ee
16cc
16ccc
16gg
16ee
16ff
16gg
16aa
16gg
16ff
16ee
=38
16dd
16cc
16b
16a
16g
16f
16e
16g
16cc
16ee
16gg
16ee
=39
16cc
16g
16cc
16ee
16gg
16ee
16dd
16ff
16aa
16ff
16dd
16cc
=40
16b
16dd
16ff#
16gg
16dd
16b
8g
8r
8g#
=41
8a
8a
8b
8cc
8cc
8dd#
=42
8ee
8ee
8ff#
8gg
8gg
8gg#
=43
8aa
8aa
8ff#
8gg
8gg
8ccc
=44
8bb
8aa
8gg
8ff
8ee
8dd
=45
16cc
16g
16cc
16ee
16gg
16ee
16ff
16dd
16b
16g
16f
16d
=46
16e
16g
16b
16cc
16e
16cc
16f
16a
16cc#
16dd
16f#
16dd
=47
16g
16b
16dd#
16ee
16g#
16ee
16a
16ff
16b
16gg
16cc
16aa
=48
16dd
16bb
16ee
16ccc
16ff
16ddd
16gg
16eee
16ccc
16gg
16ee
16gg
=49
16ccc
16eee
16ccc
16gg
16ee
16gg
16ccc
16eee
16ccc
16gg
16ee
16cc
=50
8G
8r
8b
8cc
8r
8dd#
=51
8ee
8r
8dd#
8ee
8r
8ff#
=52
8gg
8r
8ff#
8gg
8r
8aa
=53
8bb-
8r
16aa
16ccc
8bb-
8r
16aa
16ccc
=54
8bb-
2r
8r
=55
2.r
=56
4r
8cc
8b
8b
8b-
=57
8a
8a
8dd
8cc#
8cc#
8cc
=58
8b
8b
8ee
8ff
8ff
8gg#
=59
8aa
8aa
8gg
8ff
8ff
8bb-
=60
8ee
8ee
4aa
8dd
8gg
=61
8cc
8ff
8b-
4ee-
8a
=62
8dd
8g
8cc
8f
8b-
8e
=63
4a
8d
4g
8f
=64
16e
16c#
16A
16g
16e
16c#
16f
16d
16A
16a
16f
16d
=65
16g
16e
16c#
16b-
16g
16e
16a
16f
16d
16dd
16a
16f
=66
16cc#
16g
16e
16ee
16cc#
16a
16ff
16dd
16a
16aa
16ff
16dd
=67
16bb-
16gg
16ee
16gg
16ee
16cc#
16ee
16cc#
16g
16cc#
16g
16e
=68
16d
16dd
16e
16ee
16f#
16ff#
16g
16gg
16g
16gg
16a
16aa
=69
16b-
16bb-
16b-
16bb-
16cc#
16ccc#
16dd
16ddd
16ee
16eee
16ff
16fff
=70
8ggg
8r
8eee
8fff
8r
8dd
=71
8ee
4r
8cc#
8r
8cc#
=72
8cc
8r
8ff#
8aa
8r
8ff#
=73
8aa
8r
8ff#
8aa
8r
8cc
=74
8b
8r
8ff
8b
8r
8ff
=75
8b
8r
8ff
8b
8r
8ff
=76
8ee
8r
8ee
8gg
8r
8gg
=77
8bb-
2r
8g#
=78
8a
8a
8b
8cc
8cc
8cc#
=79
8dd
16dd
16cc#
16dd
16b-
8g
8r
8f#
=80
8g
8g
8a
8b-
8b-
8b
=81
8cc
16cc
16b
16cc
16a
8f
8r
8ff
=82
8ee
8ee
8ccc
8ff
8ff
8ddd
=83
8bb
16bb
16aa
16bb
16gg
8ccc
8r
8cc
=84
8dd
8dd
8ee
8ff
8ff
8aa
=85
8gg
16gg
16aa
16gg
16aa
8gg
8r
8bb-
=86
8aa
16aa
16bb-
16aa
16bb-
8aa
8r
8ddd
=87
8gg
8gg
4ccc
8ff
8bb-
=88
8ee
8aa
8dd
4gg
8cc
=89
8ff
8b-
8ee-
8a
8dd
8g
=90
4cc
8f
4b-
8d-
=91
8c
8b-
8a
8g
8bb-
8ee
=92
16ff
16cc
16a
16aa
16ff
16cc
16gg
16ee
16cc
16bb-
16gg
16ee
=93
16ff
16cc
16a
16aa
16ff
16cc
16gg
16ee
16cc
16bb-
16gg
16ee
=94
16aa
16ff
16cc
16ccc
16aa
16ff
16bb-
16ff
16dd
16ddd
16bb-
16ff
=95
16ccc
16aa
16ff
16eee-
16ccc
16aa
16ddd
16ccc
16bb-
16aa
16gg
16ff
=96
8ee
8cc
8cc
8cc
4r
=97
2r
8r
8g#
=98
8a
8a
8b
8cc
8cc
8cc#
=99
8dd
8dd
8b
8cc
8cc
8ff
=100
8ee
8dd
8cc
8b-
8a
8g
=101
16f
16c
16f
16a
16cc
16a
16b-
16g
16e
16c
16B-
16G
=102
16A
16c
16e
16f
16A
16f
16B-
16d
16f#
16g
16B
16g
=103
16c
16e
16g#
16a
16c#
16a
16d
16b-
16e
16cc
16f
16dd
=104
16g
16ee
16a
16ff
16b-
16gg
16cc
16aa
16ff
16cc
16a
16cc
=105
16ff
16aa
16ff
16cc
16a
16cc
16ff
16aa
16ff
16cc
16a
16f
=106
8c
8r
8e
8f
8r
8a
=107
8b-
8b-
8a
8g
8g
16cc
16ccc
=108
16cc
16ccc
16cc
16ccc
16cc
16ccc
16cc
16ccc
16cc
16ccc
16cc
16ccc
=109
16b
16bb
16b
16bb
16b-
16bb-
16a
16aa
16a
16aa
16b-
16gg
=110
16a
16cc
16ff
16aa
16gg
16ee
8ff
8r
8a
=111
16b-
16cc
16dd
16cc
16b-
16a
8g
8g
16cc
16ccc
=112
16cc
16ccc
16cc
16ccc
16cc
16ccc
16cc
16ccc
16cc
16ccc
16cc
16ccc
=113
16b
16bb
16b
16bb
16b-
16bb-
16a
16aa
16a
16aa
16b-
16gg
=114
16a
16cc
16ff
16aa
16gg
16ee
8ff
8r
8ff
=115
8ee
8r
8dd
8cc
8r
8b
=116
8cc
16cc
16b
16cc
16b
8cc
8r
8b-
=117
8a
8r
8g
8f
8r
8e
=118
8f
8f
8f
8f
4r
==
*-
